**harm	**harte	**timestamp	**phrase	**leadinstrument	**kern
*M3/4	*M3/4	*	*	*	*
*E:	*E:	*	*	*	*E:
1r;	N	0	.	r	1r;
=1	=1	=1	=1	=1	=1
*>A_intro	*>A_intro	*>A_intro	*>A_intro	*>A_intro	*>A_intro
2.IVe	A:maj/2	0.255	newline	voice	2A 2cc# 2ee
=2	=2	=2	=2	=2	=2
2.I7c	E:maj7/5	1.743	.	voice	2e 2g# 2B 2dd#
=3	=3	=3	=3	=3	=3
2.V7	B:9	3.231	.	voice	2B 2dd# 2ff# 2aa
=4	=4	=4	=4	=4	=4
2.I	E:maj	4.718	newline	voice	2E 2g# 2b
=5	=5	=5	=5	=5	=5
2.I	E:maj	6.481	.	voice	2E 2g# 2b
=6	=6	=6	=6	=6	=6
*>B_verse	*>B_verse	*>B_verse	*>B_verse	*>B_verse	*>B_verse
2.I	E:maj	8.243	newline	voice	2E 2g# 2b
=7	=7	=7	=7	=7	=7
2.Ic	E:maj/5	10.005	.	voice	2e 2g# 2B
=8	=8	=8	=8	=8	=8
2.I	E:maj	11.766	.	voice	2E 2g# 2b
=9	=9	=9	=9	=9	=9
2.Ic	E:maj/5	13.528	.	voice	2e 2g# 2B
=10	=10	=10	=10	=10	=10
2.V7	B:7	15.289	newline	voice	2B 2dd# 2ff# 2aa
=11	=11	=11	=11	=11	=11
2.V7	B:7	17.058	.	voice	2B 2dd# 2ff# 2aa
=12	=12	=12	=12	=12	=12
2.V7	B:7	18.826	.	voice	2B 2dd# 2ff# 2aa
=13	=13	=13	=13	=13	=13
2.V7	B:7	20.595	.	voice	2B 2dd# 2ff# 2aa
=14	=14	=14	=14	=14	=14
2.I	E:maj	22.364	newline	voice	2E 2g# 2b
=15	=15	=15	=15	=15	=15
2.I	E:maj	24.108	.	voice	2E 2g# 2b
=16	=16	=16	=16	=16	=16
2.IV	A:maj	25.852	.	voice	2A 2cc# 2ee
=17	=17	=17	=17	=17	=17
2.IV	A:maj	27.595	.	voice	2A 2cc# 2ee
=18	=18	=18	=18	=18	=18
2.I	E:maj	29.339	newline	voice	2E 2g# 2b
=19	=19	=19	=19	=19	=19
2.V7	B:7	31.104	.	voice	2B 2dd# 2ff# 2aa
=20	=20	=20	=20	=20	=20
2.I	E:maj	32.868	.	voice	2E 2g# 2b
=21	=21	=21	=21	=21	=21
2.Im7	E:7	34.633	.	voice	2E 2g# 2b 2dd#
=22	=22	=22	=22	=22	=22
2.IV	A:maj	36.398	newline	voice	2A 2cc# 2ee
=23	=23	=23	=23	=23	=23
2.IV	A:maj	38.199	.	voice	2A 2cc# 2ee
=24	=24	=24	=24	=24	=24
2.I	E:maj	40	.	voice	2E 2g# 2b
=25	=25	=25	=25	=25	=25
2.Ic	E:maj/5	41.801	.	voice	2e 2g# 2B
=26	=26	=26	=26	=26	=26
2.IV	A:maj	43.602	newline	voice	2A 2cc# 2ee
=27	=27	=27	=27	=27	=27
2.IV	A:maj	45.419	.	voice	2A 2cc# 2ee
=28	=28	=28	=28	=28	=28
2.I	E:maj	47.236	.	voice	2E 2g# 2b
=29	=29	=29	=29	=29	=29
2.V7	B:7	49.053	.	voice	2B 2dd# 2ff# 2aa
=30	=30	=30	=30	=30	=30
2.V7	B:7	50.871	.	voice	2B 2dd# 2ff# 2aa
=31	=31	=31	=31	=31	=31
2.I	E:maj	52.688	newline	voice	2E 2g# 2b
=32	=32	=32	=32	=32	=32
2.Ic	E:maj/5	54.499	.	voice	2e 2g# 2B
=33	=33	=33	=33	=33	=33
2.IV	A:maj	56.31	.	voice	2A 2cc# 2ee
=34	=34	=34	=34	=34	=34
2.IV	A:maj	58.121	.	voice	2A 2cc# 2ee
=35	=35	=35	=35	=35	=35
2.I	E:maj	59.932	newline	voice	2E 2g# 2b
=36	=36	=36	=36	=36	=36
2.V7	B:7	61.685	.	voice	2B 2dd# 2ff# 2aa
=37	=37	=37	=37	=37	=37
2.I	E:maj	63.438	.	voice	2E 2g# 2b
=38	=38	=38	=38	=38	=38
2.I	E:maj	65.192	.	voice	2E 2g# 2b
=39	=39	=39	=39	=39	=39
*>B2_verse	*>B2_verse	*>B2_verse	*>B2_verse	*>B2_verse	*>B2_verse
2.I	E:maj	66.945	newline	voice	2E 2g# 2b
=40	=40	=40	=40	=40	=40
2.Ic	E:maj/5	68.758	.	voice	2e 2g# 2B
=41	=41	=41	=41	=41	=41
2.I	E:maj	70.571	.	voice	2E 2g# 2b
=42	=42	=42	=42	=42	=42
2.Ic	E:maj/5	72.384	.	voice	2e 2g# 2B
=43	=43	=43	=43	=43	=43
2.V7	B:7	74.197	newline	voice	2B 2dd# 2ff# 2aa
=44	=44	=44	=44	=44	=44
2.V7	B:7	76.022	.	voice	2B 2dd# 2ff# 2aa
=45	=45	=45	=45	=45	=45
2.V7	B:7	77.847	.	voice	2B 2dd# 2ff# 2aa
=46	=46	=46	=46	=46	=46
2.V7	B:7	79.672	.	voice	2B 2dd# 2ff# 2aa
=47	=47	=47	=47	=47	=47
2.I	E:maj	81.497	newline	voice	2E 2g# 2b
=48	=48	=48	=48	=48	=48
2.Ic	E:maj/5	83.323	.	voice	2e 2g# 2B
=49	=49	=49	=49	=49	=49
2.IV	A:maj	85.149	.	voice	2A 2cc# 2ee
=50	=50	=50	=50	=50	=50
2.IV	A:maj	86.975	.	voice	2A 2cc# 2ee
=51	=51	=51	=51	=51	=51
2.I	E:maj	88.801	newline	voice	2E 2g# 2b
=52	=52	=52	=52	=52	=52
2.V7	B:7	90.62	.	voice	2B 2dd# 2ff# 2aa
=53	=53	=53	=53	=53	=53
2.I	E:maj	92.439	.	voice	2E 2g# 2b
=54	=54	=54	=54	=54	=54
2.I	E:maj	94.258	.	voice	2E 2g# 2b
=55	=55	=55	=55	=55	=55
2.I	E:maj	96.077	.	voice	2E 2g# 2b
=56	=56	=56	=56	=56	=56
2.I	E:maj	97.896	.	voice	2E 2g# 2b
=57	=57	=57	=57	=57	=57
2.V7	B:7	99.715	newline	voice	2B 2dd# 2ff# 2aa
=58	=58	=58	=58	=58	=58
2.V7	B:7	101.51	.	voice	2B 2dd# 2ff# 2aa
=59	=59	=59	=59	=59	=59
2.I	E:maj	103.305	.	voice	2E 2g# 2b
=60	=60	=60	=60	=60	=60
2.I	E:maj	105.099	.	voice	2E 2g# 2b
=61	=61	=61	=61	=61	=61
2.IV	A:maj	106.894	newline	voice	2A 2cc# 2ee
=62	=62	=62	=62	=62	=62
2.IV	A:maj	108.712	.	voice	2A 2cc# 2ee
=63	=63	=63	=63	=63	=63
2.I	E:maj	110.53	.	voice	2E 2g# 2b
=64	=64	=64	=64	=64	=64
2.I	E:maj	112.349	.	voice	2E 2g# 2b
=65	=65	=65	=65	=65	=65
2.IV	A:maj	114.167	newline	voice	2A 2cc# 2ee
=66	=66	=66	=66	=66	=66
2.IV	A:maj	116.023	.	voice	2A 2cc# 2ee
=67	=67	=67	=67	=67	=67
2.I	E:maj	117.88	.	voice	2E 2g# 2b
=68	=68	=68	=68	=68	=68
2.V7	B:7	119.737	.	voice	2B 2dd# 2ff# 2aa
=69	=69	=69	=69	=69	=69
*>B3_verse	*>B3_verse	*>B3_verse	*>B3_verse	*>B3_verse	*>B3_verse
2.I	E:maj	121.594	newline	voice	2E 2g# 2b
=70	=70	=70	=70	=70	=70
2.Ic	E:maj/5	123.361	.	voice	2e 2g# 2B
=71	=71	=71	=71	=71	=71
2.I	E:maj	125.128	.	voice	2E 2g# 2b
=72	=72	=72	=72	=72	=72
2.Ic	E:maj/5	126.896	.	voice	2e 2g# 2B
=73	=73	=73	=73	=73	=73
2.V7	B:7	128.663	newline	voice	2B 2dd# 2ff# 2aa
=74	=74	=74	=74	=74	=74
2.V7	B:7	130.428	.	voice	2B 2dd# 2ff# 2aa
=75	=75	=75	=75	=75	=75
2.V7	B:7	132.193	.	voice	2B 2dd# 2ff# 2aa
=76	=76	=76	=76	=76	=76
2.V7	B:7	133.958	.	voice	2B 2dd# 2ff# 2aa
=77	=77	=77	=77	=77	=77
2.I	E:maj	135.723	newline	voice	2E 2g# 2b
=78	=78	=78	=78	=78	=78
2.Im7	E:7	137.465	.	voice	2E 2g# 2b 2dd#
=79	=79	=79	=79	=79	=79
2.IV	A:maj	139.207	.	voice	2A 2cc# 2ee
=80	=80	=80	=80	=80	=80
2.IV	A:maj	140.95	.	voice	2A 2cc# 2ee
=81	=81	=81	=81	=81	=81
2.I	E:maj	142.692	newline	voice	2E 2g# 2b
=82	=82	=82	=82	=82	=82
2.V7	B:7	144.428	.	voice	2B 2dd# 2ff# 2aa
=83	=83	=83	=83	=83	=83
2.I	E:maj	146.163	.	voice	2E 2g# 2b
=84	=84	=84	=84	=84	=84
2.Im7	E:7	147.899	.	voice	2E 2g# 2b 2dd#
=85	=85	=85	=85	=85	=85
2.IV	A:maj	149.635	newline	voice	2A 2cc# 2ee
=86	=86	=86	=86	=86	=86
2.IV	A:maj	151.403	.	voice	2A 2cc# 2ee
=87	=87	=87	=87	=87	=87
2.I	E:maj	153.171	.	voice	2E 2g# 2b
=88	=88	=88	=88	=88	=88
2.I	E:maj	154.939	.	voice	2E 2g# 2b
=89	=89	=89	=89	=89	=89
2.IV	A:maj	156.707	newline	voice	2A 2cc# 2ee
=90	=90	=90	=90	=90	=90
2.IV	A:maj	158.488	.	voice	2A 2cc# 2ee
=91	=91	=91	=91	=91	=91
2.I	E:maj	160.269	.	voice	2E 2g# 2b
=92	=92	=92	=92	=92	=92
2.Im7	E:7	162.049	.	voice	2E 2g# 2b 2dd#
=93	=93	=93	=93	=93	=93
2.IV	A:maj	163.83	newline	voice	2A 2cc# 2ee
=94	=94	=94	=94	=94	=94
2.IV	A:maj	165.638	.	voice	2A 2cc# 2ee
=95	=95	=95	=95	=95	=95
2.I	E:maj	167.445	.	voice	2E 2g# 2b
=96	=96	=96	=96	=96	=96
2.I	E:maj	169.253	.	voice	2E 2g# 2b
=97	=97	=97	=97	=97	=97
2.V7	B:7	171.06	newline	voice	2B 2dd# 2ff# 2aa
=98	=98	=98	=98	=98	=98
2.V7	B:7	172.887	.	voice	2B 2dd# 2ff# 2aa
=99	=99	=99	=99	=99	=99
2I	E:maj	174.715	.	voice	2E 2g# 2b
4I	E:sus4(9)	175.933	.	voice	4E 4g# 4b
=100	=100	=100	=100	=100	=100
2.I	E:maj	176.542	.	voice	2E 2g# 2b
1r;	N	183.852	.	r	1r;
1r;	N	186.266	.	r	1r;
*-	*-	*-	*-	*-	*-
!!!OTL: Ebony Eyes
!!!COC: The Everly Brothers
!!!BillboardChartDate: 1961/04/10, 1961/03/13
!!!BillboardPeak: 8, 8
!!!BillboardWeeksOnChart: 12, 12
!!!SampleTargetRank: 30,  7
!!!SampleActualRank: 31,  9
!!!SampleID#: 1116, 1297
!!!RDF**harmony: **recip + pitch class of root + harmonic quality
!!!RDF**harte: Chris Harte's syntax, used by MIREX
!!!RDF**phrase: newline = linebreak in original McGill transcription
!!!RDF**timestamp: McGill audio timestamp in seconds
!!!RDF**leadinstrument: original McGill primary instrumentation annotation
!!!RDT: 2017/01/12/
!!!ENC: Nathaniel Condit-Schultz
!!!EST: Awating manual error checking and editing.
